cps 1

cps (125/60/4)

-- I/O: JACK multitrack recording
-- Set Supercollider to output to Jack Router
out1 = 0
out2 = 1
out3 = 2
out4 = 3
out5 = 4
out6 = 5
out7 = 6
out8 = 7

-- PANIC !
--
-- apple+dot in SC will kill audio :)
--

let silence1 = const $ degradeBy 0.3 $ sound "~"

let pat = "bd sd"::Pattern String

(cps, nudger, getNow) <- cpsUtils'

now <- getNow

nudger (-0.01)


-- sync test

d1
$ sound pat


sound pat
