cps 1

cps (125/60/4)

-- I/O: JACK multitrack recording
-- Set Supercollider to output to Jack Router
let out1 = 0
let out2 = 1
let out3 = 2
let out4 = 3
let out5 = 4
let out6 = 5
let out7 = 6
let out8 = 7

-- PANIC !
--
-- apple+dot in SC will kill audio :)
--

let silence1 = const $ degradeBy 0.3 $ sound "~"

let pat = "bd sd"::Pattern String

(cps, nudger, getNow) <- cpsUtils'

now <- getNow

nudger (-0.01)


-- sync test

d1
$ sound "bd*4"
