cps 1

setcps (140/60/4)

--
-- When using with headphones direct out
--
out1 = 0
out2 = 0
out3 = 0
out4 = 0
out5 = 0
out6 = 0
out7 = 0
out8 = 0
out9 = 0
out10 = 0
out11 = 0
out12 = 0

-- not enough loopback channels for this!
-- out8 = 16

-- PANIC !
--
-- apple+dot in SC will kill audio :)
--

let silence1 = const $ sound "~"

let pat = "bd sd"::Pattern String

(cps, nudger, getNow) <- cpsUtils'

now <- getNow

nudger (-0.01)


-- sync test

d1
$ sound pat
# orbit out1

sound pat
